!!!COM: Charles Gounod
!!!CNT: Francais
!!!TXO: Francais
!!!OTL: "Prends garde!"
!!!LYR: Barbier
!!!OPR: 
!!!OPS: Op. 
!!!ONM: No.
!!!ENC: Emily Thomas
!!!YOR: CD Sheet Music French Art Songs, The Ultimate Collection
!!!YOR: CD Sheet Music, LLC 2003
!!!ODT: 1872/
!!NB: Vocal melody and text encoded.
**kern	**silbe
=0	=0
*clefG2	*
*k[b-]	*
*M2/4	*
2r	.
=2	=2
2r	.
=3	=3
2r	.
=4	=4
2r	.
=5	=5
2r	.
=6	=6
2r	.
=7	=7
2r	.
=8	=8
{4a	{C'est
8a	u-
8a	-ne
=9	=9
4b	fil-
8b	-le
8r	.
=10	=10
4.cc	belle
8cc	a\
=11	=11
4dd}	voir!..}
8r	.
{8d	{Re-
=12	=12
4g	-gar-
8g}	-de!..}
8r	.
=13	=13
{4bn	{L'oeil
8bn	est
8b	d'a-
=14	=14
2cc}	-zur,}
=15	=15
8r	.
{8b-	{le
8cc	Coeur
8dd	est
=16	=16
4ee}	noir!..}
8r	.
{8e	{Prends
=17	=17
4a	gar-
8a}	-de!..}
8r	.
=18	=18
{4.ff	{N'y
8a	crois
=19	=19
[4ee	pas
8ee]	|
8r	.
=20	=20
4.dd	N'y
8f	crois
=21	=21
[4cc	pas!..
8cc]	|
8r	.
=22	=22
4b-	N'y
4a	crois
=23	=23
8dd}	pas!..}
8r	.
4r	.
=24	=24
4r	.
{8d	{El-
8b-	-le
=25	=25
8a	ment,
4g	|
8cc	he/-
=26	=26
4f}	-las!..}
4r	.
=27	=27
{4a	{Son
8a	front
8a	est
=28	=28
4b-	chas-
8b-	-te
8r	.
=29	=29
4cc	et
8cc	ra-
8cc	-di-
=30	=30
4dd}	-eux!..}
8r	.
{8d	{Re-
=31	=31
4g	-gar-
8g}	-de!..}
8r	.
=32	=32
{4bn	{Mais
8bn	quell
8bn	e/-
=33	=33
2cc	-clair
=34	=34
4dd	brille
8dd	en
8dd	ses
=35	=35
4ee}	yeux!..}
8r	.
{8e	{Prends
=36	=36
4a	gar-
8a}	-de!}
8r	.
=37	=37
{4.ff	{N'y
8a	crois
=38	=38
[4ee	pas!
8ee]	|
8r	.
=39	=39
4.dd	N'y
8f	crois
=40	=40
[4cc	pas!
8cc]	|
8r	.
=41	=41
4b-	N'y
4a	crois
=42	=42
8dd}	pas!}
8r	.
4r	.
=43	=43
4r	.
{8d	{El-
8b-	-le
=44	=44
8a	ment
4g	|
8cc	he/-
=45	=45
4f}	-las!}
4r	.
=46	=46
{4a	{Ses
8a	beaux
8a	che-
=47	=47
2b-	-veux
=48	=48
4cc	Sont
8a	cou-
8f	-leur
=49	=49
4dd}	d'or,}
8r	.
{8d	{Re-
=50	=50
4g	-gar-
8g}	-de!}
8r	.
=51	=51
{4bn	{Mais
8bn	crains
8bn	son
=52	=52
[4cc	Coeur
8cc]}	|}
8r	.
=53	=53
8r	.
{8dd	{Plus
8b-	faux
8g	en-
=54	=54
4ee}	-cor!..}
8r	.
{8e	{Prends
=55	=55
4a	gar-
8a}	-de!..}
8r	.
=56	=56
{4.ff	{N'y
8a	crois
=57	=57
[4ee	pas!..
8ee]	|
8r	.
=58	=58
4.dd	N'y
8f	crois
=59	=59
[4cc	pas!.
8cc]	|
8r	.
=60	=60
4b-	N'y
4a	crois
=61	=61
8dd}	pas!}
8r	.
4r	.
=62	=62
4r	.
{8d	{El-
8b-	-le-
=63	=63
8a	ment,
4g	|
8cc	he/-
=64	=64
4f}	-las!}
8r	.
{8f	{Prends
=65	=65
2cc	gar-
=66	=66
4cc}	-de!}
8r	.
{8cc	{Prends
=67	=67
4ff	gar-
8ff}	-de!..}
8r	.
==	==
*-	*-
